X:1
T:Guillaume Costeley 1531 - 1606
T:Allez mes premieres amours
%%score [ 1 2 3 4 ]
L:1/8
Q:1/4=360
M:4/4
K:C
V:1 treble nm="Superius"
V:2 treble nm="Contratenor"
V:3 treble nm="Tenor"
V:4 treble nm="Bassus"
V:1
 x8 ||[K:F] d8 d4 c4 | B4 A4 G4 G4 | ^F6 F2 G4 A4 | B4 B4 A4 G8 | ^F4 G16 x4 | d8 | d4 c4 B4 A4 | %8
w: |Al- lez mes|pre- mi- eres a-|mours, Al- lez je|ne vous veux plus|fui- vre,|Vous|me re- fu- siez|
w: ||||||||
 G4 G4 ^F6 F2 | G4 A4 B4 B4 | A4 G8 ^F4 | G4 d4 d2 c2 B2 A2 | B2 A2 G2 ^F2 G4 B4 x4 | %13
w: le se- cours, Qui|fait l'a- mant fi-|del- le vi-|vre: Al- lez * * *|* * * * * j'ay|
w: |||||
 A4 G4 G4 ^F4 x4 | G4 G4 d4 d4 | f6 e2 d4 c4 | B8 A8 | z4 d4 f6 e2 | d4 c6 B2 B8 | A4 B4 d6 d2 | %20
w: trop co- gnu voz|tours, A- pro- chez|mon a- mours se-|con- de,|N'u- sez point|vers moy * de|ri- geur, Ve- nez-|
w: |||||||
 d8 d2 d2 x4 | c2 c2 B4 A4 d6 | d2 d2 d2 d8 c2 | c2 B4 A8 z4 x2 | A8 A4 x4 | c4 c6 c2 B4 | %26
w: ça ma mi-|gnon- ne blon- de, Je|n'ay- me que vous en|ce mon- de,|Bai- sez|moy * * *|
w: |||||* bai- sez moy|
 A4 G4 G4 ^F4 | G4 A8 A4 | c4 c6 c2 B4 | A4 G4 G4[Q:1/4=180] ^F4 |"^-" x16 |] %31
w: & pre- nez mon|cur, * *||||
w: |* bai- sez|moy, bai- sez moy|& pre- nez mon||
V:2
 x8 ||[K:F] B8 A4 A4 | F4 F4 D4 D4 | D6 D2 D4 F4 | F4 F4 _E4 C4 x4 | D8 =B,16 | B8 | A4 A4 F4 F4 | %8
w: |Al- lez mes|pre- mi- eres a-|mours, Al- lez je|ne vous veux plus|fui- vre,|Vous|me re- fu- siez|
w: ||||||||
 D4 D4 D6 D2 | D4 F4 F4 F4 | _E4 C4 D8 | B,4 B4 B2 A2 G2 F2 | G4 D4 _E12 | _E4 D4 D4 B,8 | %14
w: le se- cours, Qui|fait l'a- mant fi-|del- le vi-|vre: Al- lez * * *|* j'ay trop|co- gnu voz tours,|
w: ||||||
 G8 A6 A2 | A4 A4 F4 F4 | F8 x8 | D8 z4 A4 | A4 A4 F4 E4 x4 | F4 F4 D8 | B6 B2 B4 B2 B2 | %21
w: A- pro- chez|mon a- mours se-|con-|de, N'u-|sez point vers moy|de ri- geur,|Ve- nez- ça ma mi-|
w: |||||||
 A2 A2 G4 ^F8 x2 | B6 B2 B2 B2 B4 | A2 A2 G4 ^F8 x4 | z4"^(  )" F8 F4 | G4 G6 G2 F4 | F4 D4 D4 D4 | %27
w: gnon- ne blon- de,|Je n'ay- me que vous|en ce mon- de,|Bai- sez|moy * * *|& pre- nez mon|
w: ||||* bai- sez moy||
 =B,4 F8 F4 | G4 G6 G2 F4 | F4 D4 D4 D4 |"^-" x16 |] %31
w: cur, * *||||
w: * bai- sez|moy, bai- sez moy|& pre- nez mon||
V:3
 x8 ||[K:F][K:treble-8] g8 f4 e4 | d4 c4 B4 B4 | A6 A2 B4 c4 | d4 d4 c2 B2 A2 G2 x4 | A8 G16 | g8 | %7
w: |Al- lez mes|pre- mi- eres a-|mours, Al- lez je|ne vous veux * plus *|fui- vre,|Vous|
w: |||||||
 f4 e4 d4 c4 | B4 B4 A6 A2 | B4 c4 d4 d4 | c2 B2 A2 G2 A8 | G8 z4 d4 | d2 c2 B2 A2 B4 G4 x4 | %13
w: me re- fu- siez|le se- cours, Qui|fait l'a- mant fi-|del \- le * vi-|vre: Al-|lez * * * * j'ay|
w: ||||||
 c6 B2 A4 A4 x4 | G8 z4 G4 | d4 d4 f6 e2 | d8 c8 | B8 A4 d4 | f6 e2 d4 c2 B2 x4 | c4 c4 B8 | %20
w: trop co- gnu voz|tours, A-|pro- chez mon a-|mours se-|con- de, N'u-|sez point vers moy *|de ri- geur,|
w: |||||||
 f6 f2 f4 g2 g2 | e2 f2 d4 d8 x2 | f6 f2 f2 f2 f4 | f2 f2 d4 d4 d8 | d4 c2 B2 c2 d2 x4 | %25
w: Ve- nez- ça ma mi-|gnon- ne blon- de,|Je n'ay- me que vous|en ce mon- de, Bai-|sez moy, * * *|
w: |||||
 _e4 e6 e2 d4 | c2 B2 A2 G2 A4 A4 | G4 c8 c4 | _e4 e6 e2 d4 | c2 B2 A2 G2 A4 A4 |"^-" x16 |] %31
w: \_\_ Bai- sez moy|& * * pre- nez mon|cur, Bai- sez||||
w: |||moy, bai- sze moy|& * * pre- nez mon||
V:4
 x8 ||[K:F][K:bass] G,8 D,4 A,4 | B,4 F,4 G,4 G,4 | D,6 D,2 G,4 F,4 | B,,4 B,,4 C,4 _E,4 x4 | %5
w: |Al- lez mes|pre- mi- eres a-|mours, Al- lez je|ne vous veux plus|
w: |||||
 D,8 G,16 | G,8 | D,4 A,4 B,4 F,4 | G,4 G,4 D,6 D,2 | G,4 F,4 B,,4 B,,4 | C,4 _E,4 D,8 | G,8 G,8 | %12
w: fui- vre,|Vous|me re- fu- siez|le se- cours, Qui|fait l'a- mant fi-|del- le vi-|vre: Al-|
w: |||||||
 G,8 _E,8 x4 | C,4 C,4 D,4 D,4 x4 | G,16 | z4 D,4 D,4 A,4 | B,6 B,2 F,4 F,4 | G,8 D,4 D,4 | %18
w: lez j'ay|trop co- gnu voz|tours,|A- pro- chez|mon a- mours se-|con- de, N'u-|
w: ||||||
 D,4 A,4 B,4 G,4 x4 | F,4 F,4 B,,8 | B,6 B,2 B,4 G,2 G,2 | A,2 F,2 G,4 D,8 x2 | %22
w: sez point vers moy|de ri- geur,|Ve- nez- ça ma mi-|gnon- ne blon- de,|
w: ||||
 B,6 B,2 B,2 B,2 B,4 | F,2 F,2 G,4 D,4 D,8 | D,4 F,8 x4 | z4 C,6 C,2 D,4 | F,4 G,4 D,4 D,4 | %27
w: Je n'ay- me que vous|en ce mon- de, Bai-|sez moy|bai- sez moy|& pre- nez mon|
w: |||||
 G,4 F,8 F,4 | C,4 C,6 C,2 D,4 | F,4 G,4 D,4 D,4 |"^-" x16 |] %31
w: cur, Bay- sez|moy, * * *|& pre- nez mon||
w: |* bay- sez moy|||

